static/database.svg

<?xml version="1.0" encoding="utf-8"?><!-- Uploaded to: SVG Repo, www.svgrepo.com, Generator: SVG Repo Mixer Tools -->
<svg width="800px" height="800px" viewBox="0 0 24 24" fill="none" xmlns="http://www.w3.org/2000/svg">
<path d="M4.25 7.00003C4.25 7.41424 4.58579 7.75003 5 7.75003C5.41421 7.75003 5.75 7.41424 5.75 7.00003H4.25ZM6.1 5.88903L5.81451 5.19549C5.80534 5.19927 5.79623 5.20323 5.78721 5.20737L6.1 5.88903ZM9.033 5.15203L9.10927 5.89814C9.11457 5.8976 9.11986 5.897 9.12515 5.89635L9.033 5.15203ZM11.533 5.00003L11.5317 5.75003H11.533V5.00003ZM12.466 5.00003V5.75003L12.4673 5.75003L12.466 5.00003ZM14.966 5.15203L14.8739 5.89635C14.8792 5.89701 14.8845 5.89761 14.8898 5.89815L14.966 5.15203ZM17.9 5.88903L18.2128 5.20737C18.2038 5.20322 18.1946 5.19926 18.1855 5.19548L17.9 5.88903ZM18.25 7.00003C18.25 7.41424 18.5858 7.75003 19 7.75003C19.4142 7.75003 19.75 7.41424 19.75 7.00003H18.25ZM5.75 7.00003C5.75 6.58582 5.41421 6.25003 5 6.25003C4.58579 6.25003 4.25 6.58582 4.25 7.00003H5.75ZM6.914 8.41403L6.69463 9.13123C6.70173 9.1334 6.70887 9.13547 6.71603 9.13743L6.914 8.41403ZM11.533 9.00003V8.24995L11.5219 8.25011L11.533 9.00003ZM12.466 9.00003L12.4771 8.25003H12.466V9.00003ZM17.086 8.41403L17.284 9.13743C17.2911 9.13547 17.2983 9.1334 17.3054 9.13123L17.086 8.41403ZM19.75 7.00003C19.75 6.58582 19.4142 6.25003 19 6.25003C18.5858 6.25003 18.25 6.58582 18.25 7.00003H19.75ZM5.75 7.00003C5.75 6.58582 5.41421 6.25003 5 6.25003C4.58579 6.25003 4.25 6.58582 4.25 7.00003H5.75ZM4.25 12C4.25 12.4142 4.58579 12.75 5 12.75C5.41421 12.75 5.75 12.4142 5.75 12H4.25ZM19.75 7.00003C19.75 6.58582 19.4142 6.25003 19 6.25003C18.5858 6.25003 18.25 6.58582 18.25 7.00003H19.75ZM18.25 12C18.25 12.4142 18.5858 12.75 19 12.75C19.4142 12.75 19.75 12.4142 19.75 12H18.25ZM5.75 12C5.75 11.5858 5.41421 11.25 5 11.25C4.58579 11.25 4.25 11.5858 4.25 12H5.75ZM6.914 13.414L6.69463 14.1312C6.70173 14.1334 6.70887 14.1355 6.71603 14.1374L6.914 13.414ZM11.533 14V13.2499L11.5219 13.2501L11.533 14ZM12.466 14L12.4771 13.25H12.466V14ZM17.086 13.414L17.284 14.1374C17.2911 14.1355 17.2983 14.1334 17.3054 14.1312L17.086 13.414ZM19.75 12C19.75 11.5858 19.4142 11.25 19 11.25C18.5858 11.25 18.25 11.5858 18.25 12H19.75ZM5.75 12C5.75 11.5858 5.41421 11.25 5 11.25C4.58579 11.25 4.25 11.5858 4.25 12H5.75ZM6.914 18.414L6.69463 19.1312C6.70173 19.1334 6.70887 19.1355 6.71603 19.1374L6.914 18.414ZM11.533 19V18.2499L11.5219 18.2501L11.533 19ZM12.466 19L12.4771 18.25H12.466V19ZM17.086 18.414L17.284 19.1374C17.2911 19.1355 17.2983 19.1334 17.3054 19.1312L17.086 18.414ZM19.75 12C19.75 11.5858 19.4142 11.25 19 11.25C18.5858 11.25 18.25 11.5858 18.25 12H19.75ZM5.75 7.00003C5.75 7.05846 5.71815 7.04218 5.81323 6.94645C5.91209 6.84693 6.09951 6.71444 6.41279 6.57069L5.78721 5.20737C5.38349 5.39262 5.02091 5.61563 4.74902 5.88936C4.47335 6.16688 4.25 6.5416 4.25 7.00003H5.75ZM6.38549 6.58257C7.25569 6.22436 8.1731 5.99384 9.10927 5.89814L8.95673 4.40592C7.87675 4.51631 6.8184 4.78225 5.81451 5.19549L6.38549 6.58257ZM9.12515 5.89635C9.9235 5.79751 10.7273 5.74864 11.5317 5.75003L11.5343 4.25003C10.6674 4.24854 9.80121 4.3012 8.94085 4.40771L9.12515 5.89635ZM11.533 5.75003H12.466V4.25003H11.533V5.75003ZM12.4673 5.75003C13.2717 5.74864 14.0755 5.79751 14.8739 5.89635L15.0581 4.40771C14.1978 4.3012 13.3316 4.24854 12.4647 4.25003L12.4673 5.75003ZM14.8898 5.89815C15.8263 5.99376 16.744 6.22428 17.6145 6.58258L18.1855 5.19548C17.1812 4.78214 16.1225 4.5162 15.0422 4.40591L14.8898 5.89815ZM17.5872 6.57069C17.9005 6.71444 18.0879 6.84693 18.1868 6.94645C18.2819 7.04218 18.25 7.05846 18.25 7.00003H19.75C19.75 6.5416 19.5266 6.16688 19.251 5.88936C18.9791 5.61563 18.6165 5.39262 18.2128 5.20737L17.5872 6.57069ZM4.25 7.00003C4.25 7.61363 4.646 8.06864 5.05149 8.36831C5.4717 8.67886 6.03924 8.93076 6.69463 9.13123L7.13337 7.69683C6.56276 7.52229 6.1733 7.3322 5.94301 7.162C5.698 6.98092 5.75 6.91643 5.75 7.00003H4.25ZM6.71603 9.13743C8.28853 9.56776 9.91391 9.77397 11.5441 9.74995L11.5219 8.25011C10.033 8.27205 8.54831 8.0837 7.11197 7.69063L6.71603 9.13743ZM11.533 9.75003H12.466V8.25003H11.533V9.75003ZM12.4549 9.74995C14.0854 9.77407 15.7111 9.56786 17.284 9.13743L16.888 7.69063C15.4514 8.08379 13.9664 8.27214 12.4771 8.25011L12.4549 9.74995ZM17.3054 9.13123C17.9605 8.93084 18.5281 8.67923 18.9484 8.3688C19.3542 8.069 19.75 7.61396 19.75 7.00003H18.25C18.25 6.9171 18.3018 6.98156 18.0571 7.16226C17.8269 7.33233 17.4375 7.52222 16.8666 7.69683L17.3054 9.13123ZM4.25 7.00003V12H5.75V7.00003H4.25ZM18.25 7.00003V12H19.75V7.00003H18.25ZM4.25 12C4.25 12.6136 4.646 13.0686 5.05149 13.3683C5.4717 13.6789 6.03924 13.9308 6.69463 14.1312L7.13337 12.6968C6.56276 12.5223 6.1733 12.3322 5.94301 12.162C5.698 11.9809 5.75 11.9164 5.75 12H4.25ZM6.71603 14.1374C8.28853 14.5678 9.91391 14.774 11.5441 14.7499L11.5219 13.2501C10.033 13.2721 8.54831 13.0837 7.11197 12.6906L6.71603 14.1374ZM11.533 14.75H12.466V13.25H11.533V14.75ZM12.4549 14.7499C14.0854 14.7741 15.7111 14.5679 17.284 14.1374L16.888 12.6906C15.4514 13.0838 13.9664 13.2721 12.4771 13.2501L12.4549 14.7499ZM17.3054 14.1312C17.9605 13.9308 18.5281 13.6792 18.9484 13.3688C19.3542 13.069 19.75 12.614 19.75 12H18.25C18.25 11.9171 18.3018 11.9816 18.0571 12.1623C17.8269 12.3323 17.4375 12.5222 16.8666 12.6968L17.3054 14.1312ZM4.25 12V17H5.75V12H4.25ZM4.25 17C4.25 17.6136 4.646 18.0686 5.05149 18.3683C5.4717 18.6789 6.03924 18.9308 6.69463 19.1312L7.13337 17.6968C6.56276 17.5223 6.1733 17.3322 5.94301 17.162C5.698 16.9809 5.75 16.9164 5.75 17H4.25ZM6.71603 19.1374C8.28853 19.5678 9.91391 19.774 11.5441 19.7499L11.5219 18.2501C10.033 18.2721 8.54831 18.0837 7.11197 17.6906L6.71603 19.1374ZM11.533 19.75H12.466V18.25H11.533V19.75ZM12.4549 19.7499C14.0854 19.7741 15.7111 19.5679 17.284 19.1374L16.888 17.6906C15.4514 18.0838 13.9664 18.2721 12.4771 18.2501L12.4549 19.7499ZM17.3054 19.1312C17.9608 18.9308 18.5283 18.6789 18.9485 18.3683C19.354 18.0686 19.75 17.6136 19.75 17H18.25C18.25 16.9164 18.302 16.9809 18.057 17.162C17.8267 17.3322 17.4372 17.5223 16.8666 17.6968L17.3054 19.1312ZM19.75 17V12H18.25V17H19.75Z" fill="#000000"/>
</svg>

<svg xmlns="http://www.w3.org/2000/svg" width="800" height="800" fill="none" viewBox="0 0 24 24"><path fill="currentColor" d="M4.25 7a.75.75 0 0 0 1.5 0zM6.1 5.89l-.29-.7-.02.02zm2.93-.74.08.75h.02zm2.5-.15v.75zm.94 0v.75zm2.5.15-.1.75h.02zm2.93.74.31-.68-.02-.01zM18.25 7a.75.75 0 0 0 1.5 0zM5.75 7a.75.75 0 0 0-1.5 0zm1.16 1.41-.22.72h.03zm4.62.59v-.75zm.94 0v-.75zm4.62-.59.2.73h.02zM19.75 7a.75.75 0 0 0-1.5 0zm-14 0a.75.75 0 0 0-1.5 0zm-1.5 5a.75.75 0 0 0 1.5 0zm15.5-5a.75.75 0 0 0-1.5 0zm-1.5 5a.75.75 0 0 0 1.5 0zm-12.5 0a.75.75 0 0 0-1.5 0zm1.16 1.41-.22.72h.03zm4.62.59v-.75zm.94 0v-.75zm4.62-.59.2.73h.02zM19.75 12a.75.75 0 0 0-1.5 0zm-14 0a.75.75 0 0 0-1.5 0zm1.16 6.41-.22.72h.03zm4.62.59v-.75zm.94 0v-.75zm4.62-.59.2.73h.02zM19.75 12a.75.75 0 0 0-1.5 0zm-14-5c0 .06-.03.04.06-.05q.14-.16.6-.38L5.8 5.21q-.62.26-1.04.68c-.28.28-.5.65-.5 1.11zm.64-.42A10 10 0 0 1 9.1 5.9l-.15-1.5q-1.63.18-3.15.8zm2.74-.68q1.2-.15 2.4-.15v-1.5q-1.3 0-2.59.16zm2.4-.15h.94v-1.5h-.94zm.94 0q1.2 0 2.4.15l.19-1.5q-1.3-.15-2.6-.15zm2.42.15q1.41.14 2.72.68l.58-1.38q-1.52-.62-3.15-.8zm2.7.67q.46.22.6.38c.1.1.06.1.06.05h1.5c0-.46-.22-.83-.5-1.11q-.41-.4-1.04-.68zM4.25 7c0 .61.4 1.07.8 1.37q.65.46 1.64.76l.44-1.43a4 4 0 0 1-1.19-.54c-.24-.18-.19-.24-.19-.16zm2.47 2.14q2.37.64 4.82.61l-.02-1.5q-2.25.03-4.4-.56zm4.81.61h.94v-1.5h-.94zm.92 0q2.47.03 4.83-.61l-.4-1.45q-2.15.6-4.4.56zm4.86-.62q1-.3 1.64-.76c.4-.3.8-.76.8-1.37h-1.5c0-.08.05-.02-.2.16q-.33.26-1.18.54zM4.25 7v5h1.5V7zm14 0v5h1.5V7zm-14 5c0 .61.4 1.07.8 1.37q.65.46 1.64.76l.44-1.43a4 4 0 0 1-1.19-.54c-.24-.18-.19-.24-.19-.16zm2.47 2.14q2.37.64 4.82.61l-.02-1.5q-2.25.03-4.4-.56zm4.81.61h.94v-1.5h-.94zm.92 0q2.47.03 4.83-.61l-.4-1.45q-2.15.6-4.4.56zm4.86-.62q1-.3 1.64-.76c.4-.3.8-.76.8-1.37h-1.5c0-.08.05-.02-.2.16q-.33.26-1.18.54zM4.25 12v5h1.5v-5zm0 5c0 .61.4 1.07.8 1.37q.65.45 1.64.76l.44-1.43a4 4 0 0 1-1.19-.54c-.24-.18-.19-.24-.19-.16zm2.47 2.14q2.37.64 4.82.61l-.02-1.5q-2.25.03-4.4-.56zm4.81.61h.94v-1.5h-.94zm.92 0q2.47.03 4.83-.61l-.4-1.45q-2.15.6-4.4.56zm4.86-.62a6 6 0 0 0 1.64-.76c.4-.3.8-.76.8-1.37h-1.5c0-.08.05-.02-.2.16q-.33.26-1.18.54zM19.75 17v-5h-1.5v5z"/></svg>
